packages/axiom-materials/src/icon_svgs/home.svg

<svg height="16" viewBox="0 0 16 16" width="16" xmlns="http://www.w3.org/2000/svg"><path d="m9.50403629 14.0030151h1.99972661c.550482 0 .9961852-.4490751.9961852-1.0030374v-4.99771703h.4968488c.5459673 0 .6828397-.31874187.2902368-.7119299l-4.57008298-4.57689465c-.38872389-.38930327-1.02913786-.39318802-1.42174071 0l-4.570083 4.57689465c-.38872389.38930328-.26265939.7119299.29023685.7119299h.49684872v4.99771703c0 .5651089.44600734 1.0030374.99618528 1.0030374h1.99972658v-2.9956378c0-.8311488.66488994-1.50492802 1.49795592-1.50492802.82729822 0 1.49795593.66839952 1.49795593 1.50492802z" fill-rule="evenodd"/></svg>

<svg xmlns="http://www.w3.org/2000/svg" width="16" height="16" viewBox="0 0 16 16">
  <path fill-rule="evenodd" d="M9.50403629,14.0030151 L11.5037629,14.0030151 C12.0542449,14.0030151 12.4999481,13.55394 12.4999481,12.9999777 L12.4999481,8.00226067 L12.9967969,8.00226067 C13.5427642,8.00226067 13.6796366,7.6835188 13.2870337,7.29033077 L8.71695072,2.71343612 C8.32822683,2.32413285 7.68781286,2.3202481 7.29521001,2.71343612 L2.72512701,7.29033077 C2.33640312,7.67963405 2.46246762,8.00226067 3.01536386,8.00226067 L3.51221258,8.00226067 L3.51221258,12.9999777 C3.51221258,13.5650866 3.95821992,14.0030151 4.50839786,14.0030151 L6.50812444,14.0030151 L6.50812444,11.0073773 C6.50812444,10.1762285 7.17301438,9.50244928 8.00608036,9.50244928 C8.83337858,9.50244928 9.50403629,10.1708488 9.50403629,11.0073773 L9.50403629,14.0030151 L9.50403629,14.0030151 Z"/>
</svg>
